P2
# 8-bit pgm - grayscale
130 129
255
205 205 205 205 205 205 205 205 205 205 205 205 205 205 205 205 205 205 205 205 205 205 205 205
205 205 205 205 205 205 205 205 205 205 205 205 205 205 205 205 205 205 205 205 205 205 205 205
205 205 205 205 205 205 205 205 205 205 205 205 205 205 205 205 205 205 205 205 205 205 205 205
205 205 205 205 205 205 205 205 205 205 205 205 205 205 205 205 205 205 205 205 205 205 205 205
205 205 205 205 205 205 205 205 205 205 205 205 205 205 205 205 205 205 205 205 205 205 205 205
205 205 205 205 205 205 205 205 205 205
205 205 205 205 205 205 205 205 205 205 205 205 205 205 205 205 205 205 205 205 205 205 205 205
205 205 205 205 205 205 205 205 205 205 205 205 205 205 205 205 205 205 205 205 205 205 205 205
205 205 205 205 205 205 205 205 205 205 205 205 205 205 205 205 205 205 205 205 205 205 205 205
205 205 205 205 205 205 205 205 205 205 205 205 205 205 205 205 205 205 205 205 205 205 205 205
205 205 205 205 205 205 205 205 205 205 205 205 205 205 205 205 205 205 205 205 205 205 205 205
205 205 205 205 205 205 205 205 205 205
205 205 205 205 205 205 205 205 205 205 205 205 205 205 205 205 205 205 205 205 205 205 205 205
205 205 205 205 205 205 205 205 205 205 205 205 205 205 205 205 205 205 205 205 205 205 205 205
205 205 205 205 205 205 205 205 205 205 205 205 205 205 205 205 205 205 205 205 205 205 205 205
205 205 205 205 205 205 205 205 205 205 205 205 205 205 205 205 205 205 205 205 205 205 205 205
205 205 205 205 205 205 205 205 205 205 205 205 205 205 205 205 205 205 205 205 205 205 205 205
205 205 205 205 205 205 205 205 205 205
205 205 205 205 205 205 205 205 205 205 205 205 205 205 205 205 205 205 205 205 205 205 205 205
205 205 205 205 205 205 205 205 205 205 205 205 205 205 205 205 205 205 205 205 205 205 205 205
205 205 205 205 205 205 205 205 205 205 205 205 205 205 205 205 205 205 205 205 205 205 205 205
205 205 205 205 205 205 205 205 205 205 205 205 205 205 205 205 205 205 205 205 205 205 205 205
205 205 205 205 205 205 205 205 205 205 205 205 205 205 205 205 205 205 205 205 205 205 205 205
205 205 205 205 205 205 205 205 205 205
205 205 205 205 205 205 205 205 205 205 205 205 205 205 205 205 205 205 205 205 205 205 205 205
205 205 205 205 205 205 205 205 205 205 205 205 205 205 205 205 205 205 205 205 205 205 205 205
205 205 205 205 205 205 205 205 205 205 205 205 205 205 205 205 205 205 205 205 205 205 205 205
205 205 205 205 205 205 205 205 205 205 205 205 205 205 205 205 205 205 205 205 205 205 205 205
205 205 205 205 205 205 205 205 205 205 205 205 205 205 205 205 205 205 205 205 205 205 205 205
205 205 205 205 205 205 205 205 205 205
205 205 205 205 205 205 205 205 205 205 205 205 205 205 205 205 205 205 205 205 205 205 205 205
205 205 205 205 205 205 205 205 205 205 205 205 205 205 205 205 205 205 205 205 205 205 205 205
205 205 205 205 205 205 205 205 205 205 205 205 205 205 205 205 205 205 205 205 205 205 205 205
205 205 205 205 205 205 205 205 205 205 205 205 205 205 205 205 205 205 205 205 205 205 205 205
205 205 205 205 205 205 205 205 205 205 205 205 205 205 205 205 205 205 205 205 205 205 205 205
205 205 205 205 205 205 205 205 205 205
205 205 205 205 205 205 205 205 205 205 205 205 205 205 205 205 205 205 205 205 205 205 205 205
205 205 205 205 205 205 205 205 205 205 205 205 205 205 205 205 205 205 205 205 205 205 205 205
205 205 205 205 205 205 205 205 205 205 205 205 205 205 205 205 205 205 205 205 205 205 205 205
205 205 205 205 205 205 205 205 205 205 205 205 205 205 205 205 205 205 205 205 205 205 205 205
205 205 205 205 205 205 205 205 205 205 205 205 205 205 205 205 205 205 205 205 205 205 205 205
205 205 205 205 205 205 205 205 205 205
205 205 205 205 205 205 205 205 205 205 205 205   0   0   0   0   0 205 205 205 205 205   0   0
  0   0   0 205 205 205 205 205 205 205 205 205 205 205 205 205 205 205 205 205 205 205   0 205
205 205 205 205 205 205 205 205 205 205 205 205 205 205 205 205 205 205 205 205 205 205 205 205
205 205 205 205 205 205 205 205 205 205 205 205 205 205 205 205 205 205 205 205 205 205 205 205
205 205 205 205 205 205 205 205 205 205 205 205 205 205 205 205 205 205 205 205 205 205 205 205
205 205 205 205 205 205 205 205 205 205
205 205 205 205 205 205 205 205 205 205   0   0   0   0   0   0   0   0   0   0   0   0   0   0
  0   0   0   0   0   0   0   0   0 205 205   0   0   0   0   0   0   0   0   0   0   0   0   0
  0   0   0   0   0   0   0   0   0   0   0   0   0   0   0   0   0   0   0   0   0   0   0   0
  0   0   0   0   0   0   0   0   0   0   0   0   0   0   0   0 205 205 205 205 205 205 205 205
205 205 205 205 205 205 205 205 205   0   0 205 205 205 205 205 205 205 205 205 205 205 205 205
205 205 205 205 205 205 205 205 205 205
205 205 205 205 205 205 205 205 205 205   0   0 254 254 254 254 254 254 254 254 254 254 254 205
205 205 205   0   0   0   0   0   0 205 205   0   0   0   0   0   0   0   0   0 205 205 205 205
205 205   0   0   0   0   0   0   0   0   0   0   0   0   0   0   0   0   0   0   0   0   0   0
  0   0   0   0   0   0   0   0   0   0   0   0   0   0   0   0   0   0   0   0   0   0   0   0
  0   0   0   0   0   0   0   0   0   0   0   0 205 205 205 205 205 205 205 205 205 205 205 205
205 205 205 205 205 205 205 205 205 205
205 205 205 205 205 205 205 205 205 205   0 205 254 254 254 254 254 254 254 254 254 254 254 254
254 254 254 254 254 254 254   0   0   0   0   0   0   0   0   0   0 205 254 254 254 254 254 254
254 254 254 254 254 254 254 254 254 254 254 254 254 254 254 254 254 254 254 254 254 254 254 254
254 254 254 254 254 254   0   0   0 205 205 205   0   0   0 205 205 205   0   0   0   0   0   0
  0   0   0   0   0   0   0   0   0   0   0   0 205 205 205 205 205 205 205 205 205 205 205 205
205 205 205 205 205 205 205 205 205 205
205 205 205 205 205 205 205 205 205 205   0   0 254 254 254 254 254 254 254 254 254 254 254 254
254 254 254 254 254 254 254 254 254   0   0   0   0   0   0   0   0 254 254 254 254 254 254 254
254 254 254 254 254 254 254 254 254 254 254 254 254 254 254 254 254 254 254 254 254 254 254 254
254 254 254 254 254 254 254   0   0 254 254 254   0   0 254 254 254 254 254 205 254 254 254 254
254 254 254 254 254 254   0 205   0   0   0 205 205 205 205 205 205 205 205 205 205 205 205 205
205 205 205 205 205 205 205 205 205 205
205 205 205 205 205 205 205 205 205 205   0 205 254 254 254 254 254 254 254 254 254 254 254 254
254 254 254 254 254 254 254 254 254 254 254 254 254 205   0   0   0 254 254 254 254 254 254 254
254 254 254 254 254 254 254 254 254 254 254 254 254 254 254 254 254 254 254 254 254 254 254 254
254 254 254 254 254 254 205   0   0 254 254 254   0   0 254 254 254 254 254 254 254 254 254 254
254 254 254 254 254 254 254 254   0   0 205 205 205 205 205 205 205 205 205 205 205 205 205 205
205 205 205 205 205 205 205 205 205 205
205 205 205 205 205 205 205 205 205 205   0   0 254 254 254 254 254 254 254 254 254 254 254 254
254 254 254 254 254 254 254 254 254 254 254 254 254 254 205   0   0 254 254 254 254 254 254 254
254 254 254 254 254 254 254 254 254 254 254 254 254 254 254 254 254 254 254 254 254 254 254 254
254 254 254 254 254 254 205   0 205 254 205 205 205   0 254 254 254 254 254 254 254 254 254 254
254 254 254 254 254 254 254 254   0   0 205 205 205 205 205 205 205 205 205 205 205 205 205 205
205 205 205 205 205 205 205 205 205 205
205 205 205 205 205 205 205 205 205 205   0   0 254 254 254 254 254 254 254 254 254 254 254 254
254 254 254 254 254 254 254 254 254 254 254 254 254 254 254 254 205 254 254 254 254 254 254 254
254 254 254 254 254 254 254 254 254 254 254 254 254 254 254 254 254 254 254 254 254 254 254 254
254 254 254 254 254 254   0   0 205 205 205 205 254   0 205 254 254 254 254 254 254 254 254 254
254 254 254 254 254 254 254 254   0   0 205 205 205 205 205 205 205 205 205 205 205 205 205 205
205 205 205 205 205 205 205 205 205 205
205 205 205 205 205 205 205 205 205 205   0   0 254 254 254 254 254 254 254 254 254 254 254 254
254 254 254 254 254 254 254 254 254 254 254 254 205 254 254 254 254 254 254 254 254 254 254 254
254 254 254 254 254 254 254 254 254 254 254 254 254 254 254 254 254 254 254 254 254 254 254 254
254 254 254 254 254 254   0   0 205 205 205 205 205   0 254 254 254 254 254 254 254 254 254 254
254 254 254 254 254 254 254 205   0   0 205 205 205 205 205 205 205 205 205 205 205 205 205 205
205 205 205 205 205 205 205 205 205 205
205 205 205 205 205 205 205 205 205 205   0   0 254 254 254 254 254 254 254 254 254 254 254 254
254 254 254 254 254 205 254 254 254 254 254 205 205 254 254 254 254 254 254 254 254 254 254 254
254 254 254 254 254 254 254 254 254 254 254 254 254 254 254 254 254 254 254 254 254 254 254 254
254 254 254 254 254 254   0   0 205 205 205 205 205   0 254 254 254 254 254 254 254 254 254 254
254 254 254 254 254 254 254 254   0   0 205 205 205 205 205 205 205 205 205 205 205 205 205 205
205 205 205 205 205 205 205 205 205 205
205 205 205 205 205 205 205 205 205 205   0   0 254 254 254 254 254 254 254 254 254 254 254 254
254 254 254 254 254 254 254   0 254 254 254 254   0   0 205 254 254 254 254 254 254 254 254 254
254 254 254 254 254 254 254 254 254 254 254 254 254 254 254 254 254 254 254 254 254 254 254 254
254 254 254 254 254 254   0   0 205 205 205 205   0   0 205 254 254 254 254 254 254 254 254 254
254 254 254 254 254 254 254 254   0   0 205 205 205 205 205 205 205 205 205 205 205 205 205 205
205 205 205 205 205 205 205 205 205 205
205 205 205 205 205 205 205 205 205 205   0   0 254 254 254 254 254 254 254 254 254 254 254 254
254 254 254 254 254 254 205   0 254 254 254 205   0   0 205 254 254 254 254 254 254 254 254 254
254 254 254 254 254 254 254 254 254 254 254 254 254 254 254 254 254 254 254 254 254 254 254 254
254 254 254 254 254 254   0   0 205 205 205 205   0   0 205 254 254 254 254 254 254 254 254 254
254 254 254 254 254 254 254 254   0   0 205 205 205 205 205 205 205 205 205 205 205 205 205 205
205 205 205 205 205 205 205 205 205 205
205 205 205 205 205 205 205 205 205 205   0   0 254 254 254 254 254 254 254 254 254 254 254 254
254 254 254 254 254 254 254   0   0   0   0   0   0   0   0 254 254 254 254 254 254 254 254 254
254 254 254 254 254 254 254 254 254 254 254 254 254 254 254 254 254 254 254 254 254 254 254 254
254 254 254 254 254 254   0   0 205 205 205 205   0 205 205 205 205 254 254 254 254 254 254 254
254 254 254 254 254 254 254 254   0   0 205 205 205 205 205 205 205 205 205 205 205 205 205 205
205 205 205 205 205 205 205 205 205 205
205 205 205 205 205 205 205 205 205 205   0   0 254 254 254 254 254 254 254 254 254 254 254 254
254 254 254 254 254 254 205   0   0   0   0   0   0   0   0 254 254 254 254 254 254 254 254 254
254 254 254 254 254 254 254 254 254 254 254 254 254 254 254 254 254 254 254 254 254 254 254 254
254 254 254 254 254 205   0   0 205 205 205 205 205   0   0   0 205 254 254 254 254 254 254 254
254 254 254 254 254 254 254 254   0   0   0 205   0 205 205 205 205 205 205 205 205 205 205 205
205 205 205 205 205 205 205 205 205 205
205 205 205 205 205 205 205 205 205 205   0   0 254 254 254 254 254 254 254 254 254 254 254 254
254 254 254 254 254 254   0   0 254 205   0   0   0   0   0 254 254 254 254 254 254 254 254 254
254 254 254 254 254 254 254 254 254 254 254 254 254 254 254 254 254 254 254 254 254 254 254 254
254 254 254 254 254 205   0   0   0   0 205 205   0   0   0   0 205 205 205 254 254 254 254 254
254 254 254 254 254 254 254 254   0   0   0   0   0   0 205 205 205 205 205 205 205 205 205 205
205 205 205 205 205 205 205 205 205 205
205 205 205 205 205 205 205 205 205 205   0   0 254 254 254 254 254 254 254 254 254 254 254 254
254 254 254 254 254 254   0   0 254 254 254 254 254   0   0 254 254 254 254 254 254 254 254 254
254 254 254 254 254 254 254 254 254 254 254 254 254 254 254 254 254 254 254 254 254 254 254 254
254 254 254 254 254 205   0   0   0   0   0   0   0 254 205   0   0   0 205 254 254 254 254 254
254 254 254 254 254 254 254 254 205   0   0   0   0   0 205 205 205 205 205 205 205 205 205 205
205 205 205 205 205 205 205 205 205 205
205 205 205 205 205 205 205 205 205 205   0   0 254 254 254 254 254 254 254 254 254 254 254 254
254 254 254 254 254 254   0   0 254 254 254 254 254 205   0 205 254 254 254 254 254 254 254 254
254 254 254 254 254 254 254 254 254 254 254 254 254 254 254 254 254 254 254 254 254 254 254 254
254 254 254 254 254 254   0   0   0 254 254 254 254 254 254   0   0   0 254 254 254 254 254 254
254 254 254 254 254 254 254 254 254   0   0   0 205 205 205 205 205 205 205 205 205 205 205 205
205 205 205 205 205 205 205 205 205 205
205 205 205 205 205 205 205 205 205 205   0   0 254 254 254 254 254 254 254 254 254 254 254 254
254 254 254 254 254 254 254 254 254 254 254 254 254 205   0 254 254 254 254 254 254 254 254 254
254 254 254 254 254 254 254 254 254 254 254 254 254 254 254 254 254 254 254 254 254 254 254 254
254 254 254 254 254   0   0   0 254 254 254 254 254 254 254 254 205 205 254 254 254 254 254 254
254 254 254 254 254 254 254 254 205   0   0 205 205 205 205 205 205 205 205 205 205 205 205 205
205 205 205 205 205 205 205 205 205 205
205 205 205 205 205 205 205 205 205 205   0   0 254 254 254 254 254 254 254 254 254 254 254 254
254 254 254 254 254 254 254 254 254 254 254 254 254 205   0 254 254 254 254 254 254 254 254 254
254 254 254 254 254 254 254 254 254 254 254 254 254 254 254 254 254 254 254 254 254 254 254 254
254 254 254 254 254 205 254 254 254 254 254 254 254 254 254 254 254 254 254 254 254 254 254 254
254 254 254 254 254 254 254 254 205   0 205 205 205 205 205 205 205 205 205 205 205 205 205 205
205 205 205 205 205 205 205 205 205 205
205 205 205 205 205 205 205 205 205 205   0   0 254 254 254 254 254 254 254 254 254 254 254 254
254 254 254 254 254 254 254 254 254 254 254 254 254 254 205 254 254 254 254 254 254 254 254 254
254 254 254 254 254 254 254 254 254 254 254 254 254 254 254 254 254 254 254 254 254 254 254 254
254 254 254 254 254 254 254 254 254 254 254 254 254 254 254 254 254 254 254 254 254 254 254 254
254 254 254 254 254 254 254 254 205   0 205 205 205 205 205 205 205 205 205 205 205 205 205 205
205 205 205 205 205 205 205 205 205 205
205 205 205 205 205 205 205 205 205 205   0   0 254 254 254 254 254 254 254 254 254 254 254 254
254 254 254 254 254 254 254 254 254 254 254 254 254 254 254 254 254 254 254 254 254 254 254 254
254 254 254 254 254 254 254 254 254 254 254 254 254 254 254 254 254 254 254 254 254 254 254 254
254 254 254 254 254 254 254 254 254 254 254 254 254 254 254 254 254 254 254 254 254 254 254 254
254 254 254 254 254 254 254 254 205   0 205 205 205 205 205 205 205 205 205 205 205 205 205 205
205 205 205 205 205 205 205 205 205 205
205 205 205 205 205 205 205 205 205 205   0 205 254 254 254 254 254 254 254 254 254 254 254 254
254 254 254 254 254 254 254 254 254 254 254 254 254 254 254 254 254 254 254 254 254 254 254 254
254 254 254 254 254 254 254 254 254 254 254 254 254 254 254 254 254 254 254 254 254 254 254 254
254 254 254 254 254 254 254 254 254 254 254 254 254 254 254 254 254 254 254 254 254 254 254 254
254 254 254 254 254 254 254 254 205   0 205 205 205 205 205 205 205 205 205 205 205 205 205 205
205 205 205 205 205 205 205 205 205 205
205 205 205 205 205 205 205 205 205 205   0 205 254 254 254 254 254 254 254 254 254 254 254 254
254 254 254 254 254 254 254 254 254 254 254 254 254 254 254 254 254 254 254 254 254 254 254 254
254 254 254 254 254 254 254 254 254 254 254 254 254 254 254 254 254 254 254 254 254 254 254 254
254 254 254 254 254 254 254 254 254 254 254 254 254 254 254 254 254 254 254 254 254 254 254 254
254 254 254 254 254 254 254 254 205   0 205 205 205 205 205 205 205 205 205 205 205 205 205 205
205 205 205 205 205 205 205 205 205 205
205 205 205 205 205 205 205 205 205 205   0 205 254 254 254 254 254 254 254 254 254 254 254 254
254 254 254 254 254 254 254 254 254 254 254 254 254 254 254 254 254 254 254 254 254 254 254 254
254 254 254 254 254 254 254 254 254 254 254 254 254 254 254 254 254 254 254 254 254 254 254 254
254 254 254 254 254 254 254 254 254 254 254 254 254 254 254 254 254 254 254 254 254 254 254 254
254 254 254 254 254 254 254 254 205   0 205 205 205 205 205 205 205 205 205 205 205 205 205 205
205 205 205 205 205 205 205 205 205 205
205 205 205 205 205 205 205 205 205 205   0 205 254 254 254 254 254 254 254 254 254 254 254 254
254 254 254 254 254 254 254 254 254 254 254 254 254 254 254 254 254 254 254 254 254 254 254 254
254 254 254 254 254 254 254 254 254 254 254 254 254 254 254 254 254 254 254 254 254 254 254 254
254 254 254 254 254 254 254 254 254 254 254 254 254 254 254 254 254 254 254 254 254 254 254 254
254 254 254 254 254 254 254 254 205   0 205 205 205 205 205 205 205 205 205 205 205 205 205 205
205 205 205 205 205 205 205 205 205 205
205 205 205 205 205 205 205 205 205 205   0 205 254 254 254 254 254 254 254 254 254 254 254 254
254 254 254 254 254 254 254 254 254 254 254 254 254 254 254 254 254 254 254 254 254 254 254 254
254 254 254 254 254 254 254 254 254 254 254 254 254 254 254 254 254 254 254 254 254 254 254 254
254 254 254 254 254 254 254 254 254 254 254 254 254 254 254 254 254 254 254 254 254 254 254 254
254 254 254 254 254 254 254 254 205   0   0   0   0   0   0   0   0   0   0   0   0   0   0   0
  0 205 205 205 205 205 205 205 205 205
205 205 205 205 205 205 205 205 205 205   0 205 254 254 254 254 254 254 254 254 254 254 254 254
254 254 254 254 254 254 254 254 254 254 254 254 254 254 254 254 254 254 254 254 254 254 254 254
254 254 254 254 254 254 254 254 254 254 254 254 254 254 254 254 254 254 254 254 254 254 254 254
254 254 254 254 254 254 254 254 254 254 254 254 254 254 254 254 254 254 254 254 254 254 254 254
254 254 254 254 254 254 254 254 254   0   0   0   0   0   0   0   0   0   0   0   0   0   0   0
  0 205 205 205 205 205 205 205 205 205
205 205 205 205 205 205 205 205 205 205   0 254 254 254 254 254 254 254 254 254 254 254 254 254
254 254 254 254 254 254 254 254 254 254 254 254 254 254 254 254 254 254 254 254 254 254 254 254
254 254 254 254 254 254 254 254 254 254 254 254 254 254 254 254 254 254 254 254 254 254 254 254
254 254 254 254 254 254 254 254 254 254 254 254 254 254 254 254 254 254 254 254 254 254 254 254
254 254 254 254 254 254 254 254 254 254 254 254 254 254 254 254 254 205 205 205 205 205 205   0
  0   0 205 205 205 205 205 205 205 205
205 205 205 205 205 205 205 205 205 205   0 254 254 254 254 254 254 254 254 254 254 254 254 254
254 254 254 254 254 254 254 254 254 254 254 254 254 254 254 254 254 254 254 254 254 254 254 254
254 254 254 254 254 254 254 254 254 254 254 254 254 254 254 254 254 254 254 254 254 254 254 254
254 254 254 254 254 254 254 254 254 254 254 254 254 254 254 254 254 254 254 254 254 254 254 254
254 254 254 254 254 254 254 254 254 254 254 254 254 254 254 254 254 254 254 254 254 254 254 254
  0   0 205 205 205 205 205 205 205 205
205 205 205 205 205 205 205 205 205 205   0 254 254 254 254 254 254 254 254 254 254 254 254 254
254 254 254 254 254 254 254 254 254 254 254 254 254 254 254 254 254 254 254 254 254 254 254 254
254 254 254 254 254 254 254 254 254 254 254 254 254 254 254 254 254 254 254 254 254 254 254 254
254 254 254 254 254 254 254 254 254 254 254 254 254 254 254 254 254 254 254 254 254 254 254 254
254 254 254 254 254 254 254 254 254 254 254 254 254 254 254 254 254 254 254 254 254 254 254 205
  0   0 205 205 205 205 205 205 205 205
205 205 205 205 205 205 205 205 205 205   0 205 254 254 254 254 254 254 254 254 254 254 254 254
254 254 254 254 254 254 254 254 254 254 254 254 254 254 254 254 254 254 254 254 254 254 254 254
254 254 254 254 254 254 254 254 254 254 254 254 254 254 254 254 254 254 254 254 254 254 254 254
254 254 254 254 254 254 254 254 254 254 254 254 254 254 254 254 254 254 254 254 254 254 254 254
254 254 254 254 254 254 254 254 254 254 254 254 254 254 254 254 254 254 254 254 254 254 254 205
  0 205 205 205 205 205 205 205 205 205
205 205 205 205 205 205 205 205 205 205   0 205 254 254 254 254 254 254 254 254 254 254 254 254
254 254 254 254 254 254 254 254 254 254 254 254 254 254 254 254 254 254 254 254 254 254 254 254
254 254 254 254 254 254 254 254 254 254 254 254 254 254 254 254 254 254 254 254 254 254 254 254
254 254 254 254 254 254 254 254 254 254 254 254 254 254 254 254 254 254 254 254 254 254 254 254
254 254 254 254 254 254 254 254 254 254 254 254 254 254 254 254 254 254 254 254 254 254 254 205
  0 205 205 205 205 205 205 205 205 205
205 205 205 205 205 205 205 205 205 205   0 205 254 254 254 254 254 254 254 254 254 254 254 254
254 254 254 254 254 254 254 254 254 254 254 254 254 254 254 254 254 254 254 254 254 254 254 254
254 254 254 254 254 254 254 254 254 254 254 254 254 254 254 254 254 254 254 254 254 254 254 254
254 254 254 254 254 254 254 254 254 254 254 254 254 254 254 254 254 254 254 254 254 254 254 254
254 254 254 254 254 254 254 254 254 254 254 254 254 254 254 254 254 254 254 254 254 254 254 205
  0 205 205 205 205 205 205 205 205 205
205 205 205 205 205 205 205 205 205 205   0 205 254 254 254 254 254 254 254 254 254 254 254 254
254 254 254 254 254 254 254 254 254 254 254 254 254 254 254 254 254 254 254 254 254 254 254 254
254 254 254 254 254 254 254 254 254 254 254 254 254 254 254 254 254 254 254 254 254 254 254 254
254 254 254 254 254 254 254 254 254 254 254 254 254 254 254 254 254 254 254 254 254 254 254 254
254 254 254 254 254 254 254 254 254 254 254 254 254 254 254 254 254 254 254 254 254 254 254 205
  0 205 205 205 205 205 205 205 205 205
205 205 205 205 205 205 205 205 205 205   0   0 254 254 254 254 254 254 254 254 254 254 254 254
254 254 254 254 254 254 254 254 254 254 254 254 254 254 254 254 254 254 254 254 254 254 254 254
254 254 254 254 254 254 254 254 254 254 254 254 254 254 254 254 254 254 254 254 254 254 254 254
254 254 254 254 254 254 254 254 254 254 254 254 254 254 254 254 254 254 254 254 254 254 254 254
254 254 254 254 254 254 254 254 254 254 254 254 254 254 254 254 254 254 254 254 254 254 254 205
  0 205 205 205 205 205 205 205 205 205
205 205 205 205 205 205 205 205 205 205   0   0 254 254 254 254 254 254 254 254 254 254 254 254
254 254 254 254 254 254 254 254 254 254 254 254 254 254 254 254 254 254 254 254 254 254 254 254
254 254 254 254 254 254 254 254 254 254 254 254 254 254 254 254 254 254 254 254 254 254 254 254
254 254 254 254 254 254 254 254 254 254 254 254 254 254 254 254 254 254 254 254 254 254 254 254
254 254 254 254 254 254 254 254 254 254 254 254 254 254 254 254 254 254 254 254 254 254 254 205
  0 205 205 205 205 205 205 205 205 205
205 205 205 205 205 205 205 205 205 205   0   0 254 254 254 254 254 254 254 254 254 254 254 254
254 254 254 254 254 254 254 254 254 254 254 254 254 254 254 254 254 254 254 254 254 254 254 254
254 254 254 254 254 254 254 254 254 254 254 254 254 254 254 254 254 254 254 254 254 254 254 254
254 254 254 254 254 254 254 254 254 254 254 254 254 254 254 254 254 254 254 254 254 254 254 254
254 254 254 254 254 254 254 254 254 254 254 254 254 254 254 254 254 254 254 254 254 254 254   0
  0 205 205 205 205 205 205 205 205 205
205 205 205 205 205 205 205 205 205 205   0 205 254 254 254 254 254 254 254 254 254 254 254 254
254 254 254 254 254 254 254 254 254 254 254 254 254 254 254 254 254 254 254 254 254 254 254 254
254 254 254 254 254 254 254 254 254 254 254 254 254 254 254 254 254 254 254 254 254 254 254 254
254 254 254 254 254 254 254 254 254 254 254 254 254 254 254 254 254 254 254 254 254 254 254 254
254 254 254 254 254 254 254 254 254 254 254 254 254 254 254 254 254 254 254 254 254 254 254   0
  0 205 205 205 205 205 205 205 205 205
205 205 205 205 205 205 205 205 205 205   0 205 254 254 254 254 254 254 254 254 254 254 254 254
254 254 254 254 254 254 254 254 254 254 254 254 254 254 254 254 254 254 254 254 254 254 254 254
254 254 254 254 254 254 254 254 254 254 254 254 254 254 254 254 254 254 254 254 254 254 254 254
254 254 254 254 254 254 254 254 254 254 254 254 254 254 254 254 254 254 254 254 254 254 254 254
254 254 254 254 254 254 254 254 254 254 254 254 254 254 254 254 254 254 254 254 254 254 254   0
  0 205 205 205 205 205 205 205 205 205
205 205 205 205 205 205 205 205 205 205   0 205 254 254 254 254 254 254 254 254 254 254 254 254
254 254 254 254 254 254 254 254 254 254 254 254 254 254 254 254 254 254 254 254 254 254 254 254
254 254 254 254 254 254 254 254 254 254 254 254 254 254 254 254 254 254 254 254 254 254 254 254
254 254 254 254 254 254 254 254 254 254 254 254 254 254 254 254 254 254 254 254 254 254 254 254
254 254 254 254 254 254 254 254 254 254 254 254 254 254 254 254 254 254 254 254 254 254 254   0
  0 205 205 205 205 205 205 205 205 205
205 205 205 205 205 205 205 205 205 205   0 205 254 254 254 254 254 254 254 254 254 254 254 254
254 254 254 254 254 254 254 254 254 254 254 254 254 254 254 254 254 254 254 254 254 254 254 254
254 254 254 254 254 254 254 254 254 254 254 254 254 254 254 254 254 254 254 254 254 254 254 254
254 254 254 254 254 254 254 254 254 254 254 254 254 254 254 254 254 254 254 254 254 254 254 254
254 254 254 254 254 254 254 254 254 254 254 254 254 254 254 254 254 254 254 254 254 254 254   0
  0 205 205 205 205 205 205 205 205 205
205 205 205 205 205 205 205 205 205 205   0 205 254 254 254 254 254 254 254 254 254 254 254 254
254 254 254 254 254 254 254 254 254 254 254 254 254 254 254 254 254 254 254 254 254 254 254 254
254 254 254 254 254 254 254 254 254 254 254 254 254 254 254 254 254 254 254 254 254 254 254 254
254 254 254 254 254 254 254 254 254 254 254 254 254 254 254 254 254 254 254 254 254 254 254 254
254 254 254 254 254 254 254 254 254 254 254 254 254 254 254 254 254 254 254 254 254 254 254   0
  0 205 205 205 205 205 205 205 205 205
205 205 205 205 205 205 205 205 205 205   0 205 254 254 254 254 254 254 254 254 254 254 254 254
254 254 254 254 254 254 254 254 254 254 254 254 254 254 254 254 254 254 254 254 254 254 254 254
254 254 254 254 254 254 254 254 254 254 254 254 254 254 254 254 254 254 254 254 254 254 254 254
254 254 254 254 254 254 254 254 254 254 254 254 254 254 254 254 254 254 254 254 254 254 254 254
254 254 254 254 254 254 254 254 254 254 254 254 254 254 254 254 254 254 254 254 254 254 254   0
  0 205 205 205 205 205 205 205 205 205
205 205 205 205 205 205 205 205 205 205   0 205 254 254 254 254 254 254 254 254 254 254 254 254
254 254 254 254 254 254 254 254 254 254 254 254 254 254 254 254 254 254 254 254 254 254 254 254
254 254 254 254 254 254 254 254 254 254 254 254 254 254 254 254 254 254 254 254 254 254 254 254
254 254 254 254 254 254 254 254 254 254 254 254 254 254 254 254 254 254 254 254 254 254 254 254
254 254 254 254 254 254 254 254 254 254 254 254 254 254 254 254 254 254 254 254 254 254 254   0
  0 205 205 205 205 205 205 205 205 205
205 205 205 205 205 205 205 205 205 205   0 205 254 254 254 254 254 254 254 254 254 254 254 254
254 254 254 254 254 254 254 254 254 254 254 254 254 254 254 254 254 254 254 254 254 254 254 254
254 254 254 254 254 254 254 254 254 254 254 254 254 254 254 254 254 254 254 254 254 254 254 254
254 254 254 254 254 254 254 254 254 254 254 254 254 254 254 254 254 254 254 254 254 254 254 254
254 254 254 254 254 254 254 254 254 254 254 254 254 254 254 254 254 254 254 254 254 254 254   0
  0 205 205 205 205 205 205 205 205 205
205 205 205 205 205 205 205 205 205   0   0 254 254 254 254 254 254 254 254 254 254 254 254 254
254 254 254 254 254 254 254 254 254 254 254 254 254 254 254 254 254 254 254 254 254 254 254 254
254 254 254 254 254 254 254 254 254 254 254 254 254 254 254 254 254 254 254 254 254 254 254 254
254 254 254 254 254 254 254 254 254 254 254 254 254 254 254 254 254 254 254 254 254 254 254 254
254 254 254 254 254 254 254 254 254 254 254 254 254 254 254 254 254 254 254 254 254 254 254   0
  0 205 205 205 205 205 205 205 205 205
205 205 205 205 205 205 205 205 205   0   0 205 254 254 254 254 254 254 254 254 254 254 254 254
254 254 254 254 254 254 254 254 254 254 254 254 254 254 254 254 254 254 254 254 254 254 254 254
254 254 254 254 254 254 254 254 254 254 254 254 254 254 254 254 254 254 254 254 254 254 254 254
254 254 254 254 254 254 254 254 254 254 254 254 254 254 254 254 254 254 254 254 254 254 254 254
254 254 254 254 254 254 254 254 254 254 254 254 254 254 254 254 254 254 254 254 254 254 254   0
  0 205 205 205 205 205 205 205 205 205
205 205 205 205 205 205 205 205 205   0   0 254 254 254 254 254 254 254 254 254 254 254 254 254
254 254 254 254 254 254 254 254 254 254 254 254 254 254 254 254 254 254 254 254 254 254 254 254
254 254 254 254 254 254 254 254 254 254 254 254 254 254 254 254 254 254 254 254 254 254 254 254
254 254 254 254 254 254 254 254 254 254 254 254 254 254 254 254 254 254 254 254 254 254 254 254
254 254 254 254 254 254 254 254 254 254 254 254 254 254 254 254 254 254 254 254 254 254 254   0
  0 205 205 205 205 205 205 205 205 205
205 205 205 205 205 205 205 205 205   0   0 254 254 254 254 254 254 254 254 254 254 254 254 254
254 254 254 254 254 254 254 254 254 254 254 254 254 254 254 254 254 254 254 254 254 254 254 254
254 254 254 254 254 254 254 254 254 254 254 254 254 254 254 254 254 254 254 254 254 254 254 254
254 254 254 254 254 254 254 254 254 254 254 254 254 254 254 254 254 254 254 254 254 254 254 254
254 254 254 254 254 254 254 254 254 254 254 254 254 254 254 254 254 254 254 254 254 254 254   0
  0 205 205 205 205 205 205 205 205 205
205 205 205 205 205 205 205 205 205   0   0 254 254 254 254 254 254 254 254 254 254 254 254 254
254 254 254 254 254 254 254 254 254 254 254 254 254 254 254 254 254 254 254 254 254 254 254 254
254 254 254 254 254 254 254 254 254 254 254 254 254 254 254 254 254 254 254 254 254 254 254 254
254 254 254 254 254 254 254 254 254 254 254 254 254 254 254 254 254 254 254 254 254 254 254 254
254 254 254 254 254 254 254 254 254 254 254 254 254 254 254 254 254 254 254 254 254 254 254   0
  0 205 205 205 205 205 205 205 205 205
205 205 205 205 205 205 205 205 205   0   0 254 254 254 254 254 254 254 254 254 254 254 254 254
254 254 254 254 254 254 254 254 254 254 254 254 254 254 254 254 254 254 254 254 254 254 254 254
254 254 254 254 254 254 254 254 254 254 254 254 254 254 254 254 254 254 254 254 254 254 254 254
254 254 254 254 254 254 254 254 254 254 254 254 254 254 254 254 254 254 254 254 254 254 254 254
254 254 254 254 254 254 254 254 254 254 254 254 254 254 254 254 254 254 254 254 254 254 254   0
  0 205 205 205 205 205 205 205 205 205
205 205 205 205 205 205 205 205 205   0   0 254 254 254 254 254 254 254 254 254 254 254 254 254
254 254 254 254 254 254 254 254 254 254 254 254 254 254 254 254 254 254 254 254 254 254 254 254
254 254 254 254 254 254 254 254 254 254 254 254 254 254 254 254 254 254 254 254 254 254 254 254
254 254 254 254 254 254 254 254 254 254 254 254 254 254 254 254 254 254 254 254 254 254 254 254
254 254 254 254 254 254 254 254 254 254 254 254 254 254 254 254 254 254 254 254 254 254 254   0
  0 205 205 205 205 205 205 205 205 205
205 205 205 205 205 205 205 205 205   0   0 254 254 254 254 254 254 254 254 254 254 254 254 254
254 254 254 254 254 254 254 254 254 254 254 254 254 254 254 254 254 254 254 254 254 254 254 254
254 254 254 254 254 254 254 254 254 254 254 254 254 254 254 254 254 254 254 254 254 254 254 254
254 254 254 254 254 254 254 254 254 254 254 254 254 254 254 254 254 254 254 254 254 254 254 254
254 254 254 254 254 254 254 254 254 254 254 254 254 254 254 254 254 254 254 254 254 254 254   0
  0 205 205 205 205 205 205 205 205 205
205 205 205 205 205 205 205 205 205   0   0 254 254 254 254 254 254 254 254 254 254 254 254 254
254 254 254 254 254 254 254 254 254 254 254 254 254 254 254 254 254 254 254 254 254 254 254 254
254 254 254 254 254 254 254 254 254 254 254 254 254 254 254 254 254 254 254 254 254 254 254 254
254 254 254 254 254 254 254 254 254 254 254 254 254 254 254 254 254 254 254 254 254 254 254 254
254 254 254 254 254 254 254 254 254 254 254 254 254 254 254 254 254 254 254 254 254 254 254   0
  0 205 205 205 205 205 205 205 205 205
205 205 205 205 205 205 205 205 205   0   0 205 254 254 254 254 254 254 254 254 254 254 254 254
254 254 254 254 254 254 254 254 254 254 254 254 254 254 254 254 254 254 254 254 254 254 254 254
254 254 254 254 254 254 254 254 254 254 254 254 254 254 254 254 254 254 254 254 254 254 254 254
254 254 254 254 254 254 254 254 254 254 254 254 254 254 254 254 254 254 254 254 254 254 254 254
254 254 254 254 254 254 254 254 254 254 254 254 254 254 254 254 254 254 254 254 254 254 254   0
  0 205 205 205 205 205 205 205 205 205
205 205 205 205 205 205 205 205 205   0   0 205 254 254 254 254 254 254 254 254 254 254 254 254
254 254 254 254 254 254 254 254 254 254 254 254 254 254 254 254 254 254 254 254 254 254 254 254
254 254 254 254 254 254 254 254 254 254 254 254 254 254 254 254 254 254 254 254 254 254 254 254
254 254 254 254 254 254 254 254 254 254 254 254 254 254 254 254 254 254 254 254 254 254 254 254
254 254 254 254 254 254 254 254 254 254 254 254 254 254 254 254 254 254 254 254 254 254 254   0
  0 205 205 205 205 205 205 205 205 205
205 205 205 205 205 205 205 205 205   0   0   0 254 254 254 254 254 254 254 254 254 254 254 254
254 254 254 254 254 254 254 254 254 254 254 254 254 254 254 254 254 254 254 254 254 254 254 254
254 254 254 254 254 254 254 254 254 254 254 254 254 254 254 254 254 254 254 254 254 254 254 254
254 254 254 254 254 254 254 254 254 254 254 254 254 254 254 254 254 254 254 254 254 254 254 254
254 254 254 254 254 254 254 254 254 254 254 254 254 254 254 254 254 254 254 254 254 254 205   0
  0 205 205 205 205 205 205 205 205 205
205 205 205 205 205 205 205 205 205 205   0   0 254 254 254 254 254 254 254 254 254 254 254 254
254 254 254 254 254 254 254 254 254 254 254 254 254 254 254 254 254 254 254 254 254 254 254 254
254 254 254 254 254 254 254 254 254 254 254 254 254 254 254 254 254 254 254 254 254 254 254 254
254 254 254 254 254 254 254 254 254 254 254 254 254 254 254 254 254 254 254 254 254 254 254 254
254 254 254 254 254 254 254 254 254 254 254 254 254 254 254 254 254 254 254 254 254 254 205   0
  0 205 205 205 205 205 205 205 205 205
205 205 205 205 205 205 205 205 205 205   0   0 254 254 254 254 254 254 254 254 254 254 254 254
254 254 254 254 254 254 254 254 254 254 254 254 254 254 254 254 254 254 254 254 254 254 254 254
254 254 254 254 254 254 254 254 254 254 254 254 254 254 254 254 254 254 254 254 254 254 254 254
254 254 254 254 254 254 254 254 254 254 254 254 254 254 254 254 254 254 254 254 254 254 254 254
254 254 254 254 254 254 254 254 254 254 254 254 254 254 254 254 254 254 254 254 254 254 205   0
  0 205 205 205 205 205 205 205 205 205
205 205 205 205 205 205 205 205 205 205   0   0 254 254 254 254 254 254 254 254 254 254 254 254
254 254 254 254 254 254 254 254 254 254 254 254 254 254 254 254 254 254 254 254 254 254 254 254
254 254 254 254 254 254 254 254 254 254 254 254 254 254 254 254 254 254 254 254 254 254 254 254
254 254 254 254 254 254 254 254 254 254 254 254 254 254 254 254 254 254 254 254 254 254 254 254
254 254 254 254 254 254 254 254 254 254 254 254 254 254 254 254 254 254 254 254 254 254   0   0
  0 205 205 205 205 205 205 205 205 205
205 205 205 205 205 205 205 205 205 205   0   0 254 254 254 254 254 254 254 254 254 254 254 254
254 254 254 254 254 254 254 254 254 254 254 254 254 254 254 254 254 254 254 254 254 254 254 254
254 254 254 254 254 254 254 254 254 254 254 254 254 254 254 254 254 254 254 254 254 254 254 254
254 254 254 254 254 254 254 254 254 254 254 254 254 254 254 254 254 254 254 254 254 254 254 254
254 254 254 254 254 254 254 254 254 254 254 254 254 254 254 254 254 254 254 254 254 254   0   0
  0 205 205 205 205 205 205 205 205 205
205 205 205 205 205 205 205 205 205   0   0   0 254 254 254 254 254 254 254 254 254 254 254 254
254 254 254 254 254 254 254 254 254 254 254 254 254 254 254 254 254 254 254 254 254 254 254 254
254 254 254 254 254 254 254 254 254 254 254 254 254 254 254 254 254 254 254 254 254 254 254 254
254 254 254 254 254 254 254 254 254 254 254 254 254 254 254 254 254 254 254 254 254 254 254 254
254 254 254 254 254 254 254 254 254 254 254 254 254 254 254 254 254 254 254 254 254 254   0   0
  0 205 205 205 205 205 205 205 205 205
205 205 205 205 205 205 205 205 205   0   0 205 254 254 254 254 254 254 254 254 254 254 254 254
254 254 254 254 254 254 254 254 254 254 254 254 254 254 254 254 254 254 254 254 254 254 254 254
254 254 254 254 254 254 254 254 254 254 254 254 254 254 254 254 254 254 254 254 254 254 254 254
254 254 254 254 254 254 254 254 254 254 254 254 254 254 254 254 254 254 254 254 254 254 254 254
254 254 254 254 254 254 254 254 254 254 254 254 254 254 254 254 254 254 254 254 254 254   0   0
  0 205 205 205 205 205 205 205 205 205
205 205 205 205 205 205 205 205 205   0   0 254 254 254 254 254 254 254 254 254 254 254 254 254
254 254 254 254 254 254 254 254 254 254 254 254 254 254 254 254 254 254 254 254 254 254 254 254
254 254 254 254 254 254 254 254 254 254 254 254 254 254 254 254 254 254 254 254 254 254 254 254
254 254 254 254 254 254 254 254 254 254 254 254 254 254 254 254 254 254 254 254 254 254 254 254
254 254 254 254 254 254 254 254 254 254 254 254 254 254 254 254 254 254 254 254 254   0   0   0
  0 205 205 205 205 205 205 205 205 205
205 205 205 205 205 205 205 205 205   0   0 254 254 254 254 254 254 254 254 254 254 254 254 254
254 254 254 254 254 254 254 254 254 254 254 254 254 254 254 254 254 254 254 254 254 254 254 254
254 254 254 254 254 254 254 254 254 254 254 254 254 254 254 254 254 254 254 254 254 254 254 254
254 254 254 254 254 254 254 254 254 254 254 254 254 254 254 254 254 254 254 254 254 254 254 254
254 254 254 254   0   0   0   0 205 205 205 254 254 254 254 254   0   0   0 254 205   0   0   0
  0 205 205 205 205 205 205 205 205 205
205 205 205 205 205 205 205 205 205   0   0 254 254 254 254 254 254 254 254 254 254 254 254 254
254 254 254 254 254 254 254 254 254 254 254 254 254 254 254 254 254 254 254 254 254 254 254 254
254 254 254 254 254 254 254 254 254 254 254 254 254 254 254 254 254 254 254 254 254 254 254 254
254 254 254 254 254 254 254 254 254 254 254 254 254 254 254 254 254 254 254 254 254 254 254 254
254 254 254 254   0   0   0   0 205 205 254 254 254 254 254 254   0   0 205 205 254 205   0   0
  0 205 205 205 205 205 205 205 205 205
205 205 205 205 205 205 205 205 205   0   0 254 254 254 254 254 254 254 254 254 254 254 254 254
254 254 254 254 254 254 254 254 254 254 254 254 254 254 254 254 254 254 254 254 254 254 254 254
254 254 254 254 254 254 254 254 254 254 254 254 254 254 254 254 254 254 254 254 254 254 254 254
254 254 254 254 254 254 254 254 254 254 254 254 254 254 254 254 254 254 254 254 254 254 254 254
254 254 254 254 254 254 205 205 205 205 254 254 254 254 254 254 254 254 254 254 254 205   0   0
  0 205 205 205 205 205 205 205 205 205
205 205 205 205 205 205 205 205 205   0   0 254 254 254 254 254 254 254 254 254 254 254 254 254
254 254 254 254 254 254 254 254 254 254 254 254 254 254 254 254 254 254 254 254 254 254 254 254
254 254 254 250 228 223 223 223 223 223 223 223 223 223 223 223 223 223 223 223 220 220 223 223
223 223 223 223 223 223 223 223 223 223 223 223 223 223 223 223 223 223 223 223 223 223 223 223
223 223 245 253 254 254 205 254 254 254 254 254 254 254 254 254 205 205 254 254 254   0   0   0
  0 205 205 205 205 205 205 205 205 205
205 205 205 205 205 205 205 205 205   0   0 254 254 254 254 254 254 254 254 254 254 254 254 254
254 254 254 254 254 254 254 254 254 254 254 254 254 254 254 254 254 254 254 254 254 254 254 254
254 254 254 228  71  36  36  36  36  36  36  36  36  36  36  36  36  36  36  36  31  52  35  36
 36  36  36  36  36  36  36  36  36  36  36  36  36  36  36  36  36  36  36  36  36  36  36  36
 36  36 196 249   0   0   0   0 205 205 205 254 254 254 254 205   0   0 205 254 254 205   0   0
  0 205 205 205 205 205 205 205 205 205
205 205 205 205 205 205 205 205 205   0   0 254 254 254 254 254 254 254 254 254 254 254 254 254
254 254 254 254 254 254 254 254 254 254 254 254 254 254 254 254 254 254 254 254 254 254 254 254
254 254 254 223  36   0   0   0   0   0   0   0   0   0   0   0   0   0   0   0   0  24   0   0
  0   0   0   0   0   0   0   0   0   0   0   0   0   0   0   0   0   0   0   0   0   0   0   0
  0   0 186 248 254 205   0   0   0   0 205 254 254 254 254 254 254 254 254 254 254 254   0   0
  0 205 205 205 205 205 205 205 205 205
205 205 205 205 205 205 205 205 205   0   0 254 254 254 254 254 254 254 254 254 254 254 254 254
254 254 254 254 254 254 254 254 254 254 254 254 254 254 254 254 254 254 254 254 254 254 254 254
254 254 254 223  36   0   0   0   0   0   0   0   0   0   0   0   0   0   0   0   0  24   0   0
  0   0   0   0   0   0   0   0   0   0   0   0   0   0   0   0   0   0   0   0   0   0   0   0
  0   0 186 248 254 254 254 254 254 254 254 254 254 254 254 254 254 254 254 254 254 254   0   0
  0 205 205 205 205 205 205 205 205 205
205 205 205 205 205 205 205 205 205   0   0 254 254 254 254 254 254 254 254 254 254 254 254 254
254 254 254 254 254 254 254 254 254 254 254 254 254 254 254 254 254 254 254 254 254 254 254 254
254 254 254 223  36   0   0   0   0   0   0   0   0   0   0   0   0   0   0   0   0  24   0   0
  0   0   0   0   0   0   0   0   0   0   0   0   0   0   0   0   0   0   0   0   0   0   0   0
  0   0 186 248 254 254 254 254 254 254 254 254 254 254 254 254 254 254 254 254 254 254   0   0
205 205 205 205 205 205 205 205 205 205
205 205 205 205 205 205 205 205 205   0   0 254 254 254 254 254 254 254 254 254 254 254 254 254
254 254 254 254 254 254 254 254 254 254 254 254 254 254 254 254 254 254 254 254 254 254 254 254
254 254 254 223  36   0   0   0   0   0   0   0   0   0   0   0   0   0   0   0   0  24   0   0
  0   0   0   0   0   0   0   0   0   0   0   0   0   0   0   0   0   0   0   0   0   0   0   0
  0   0   0 200 205 205 254 254 254 254 254 254 254 254 254 254 254 254 254 254 254 254   0   0
205 205 205 205 205 205 205 205 205 205
205 205 205 205 205 205 205 205 205   0   0 254 254 254 254 254 254 254 254 254 254 254 254 254
254 254 254 254 254 254 254 254 254 254 254 254 254 254 254 254 254 254 254 254 254 254 254 254
254 254 254 223  36   0   0   0   0   0   0   0   0   0   0   0   0   0   0   0   0  24   0   0
  0   0   0   0   0   0   0   0   0   0   0   0   0   0   0   0   0   0   0   0   0   0   0   0
  0   0 150 200 254 254 254 254 254 254 254 254 254 254 254 254 254 254 254 254 254 254   0   0
205 205 205 205 205 205 205 205 205 205
205 205 205 205 205 205 205 205 205   0   0 254 254 254 254 254 254 254 254 254 254 254 254 254
254 254 254 254 254 254 254 254 254 254 254 254 254 254 254 254 254 254 254 254 254 254 254 254
254 254 254 223  36   0   0   0   0   0   0   0   0   0   0   0   0   0   0   0   0  24   0   0
  0   0   0   0   0   0   0   0   0   0   0   0   0   0   0   0   0   0   0   0   0   0   0   0
  0   0 186 248 254 254 254 254 254 254 254 254 254 254 254 254 254 254 254 254 254 254   0   0
205 205 205 205 205 205 205 205 205 205
205 205 205 205 205 205 205 205 205   0   0 254 254 254 254 254 254 254 254 254 254 254 254 254
254 254 254 254 254 254 254 254 254 254 254 254 254 254 254 254 254 254 254 254 254 254 254 254
254 254 254 223  36   0   0   0   0   0   0   0   0   0   0   0   0   0   0   0   0  24   0   0
  0   0   0   0   0   0   0   0   0   0   0   0   0   0   0   0   0   0   0   0   0   0   0   0
  0   0 186 248 254 254 254 254 254 254 254 254 254 254 254 254 254 254 254 254 254 254   0   0
205 205 205 205 205 205 205 205 205 205
205 205 205 205 205 205 205 205 205   0   0 254 254 254 254 254 254 254 254 254 254 254 254 254
254 254 254 254 254 254 254 254 254 254 254 254 254 254 254 254 254 254 254 254 254 254 254 254
254 254 254 223  36   0   0   0   0   0   0   0   0   0   0   0   0   0   0   0   0  24   0   0
  0   0   0   0   0   0   0   0   0   0   0   0   0   0   0   0   0   0   0   0   0   0   0   0
  0   0 186 248 254 254 254 254 254 254 254 254 254 254 254 254 254 254 254 254 254 254   0   0
205 205 205 205 205 205 205 205 205 205
205 205 205 205 205 205 205 205 205   0   0 254 254 254 254 254 254 254 254 254 254 254 254 254
254 254 254 254 254 254 254 254 254 254 254 254 254 254 254 254 254 254 254 254 254 254 254 254
254 254 254 223  36   0   0   0   0   0   0   0   0   0   0   0   0   0   0   0   0 143 182 186
186 186 186 186 186 186 186 186 186 186 186 186 186 186 186 186 186 186 186 186 186 186 186 186
186 186 235 252 254 254 254 254 254 254 254 254 254 254 254 254 254 254 254 254 254 254   0   0
205 205 205 205 205 205 205 205 205 205
205 205 205 205 205 205 205 205 205   0   0 254 254 254 254 254 254 254 254 254 254 254 254 254
254 254 254 254 254 254 254 254 254 254 254 254 254 254 254 254 254 254 254 254 254 254 254 254
254 254 254 223  36   0   0   0   0   0   0   0   0   0   0   0   0   0   0   0   0 183 243 248
248 248 248 248 248 248 248 248 248 248 248 248 248 248 248 248 248 248 248 248 248 248 248 248
248 248 252 254 254 254 254 254 254 254 254 254 254 254 254 254 254 254 254 254 254 254   0   0
205 205 205 205 205 205 205 205 205 205
205 205 205 205 205 205 205 205 205   0   0 254 254 254 254 254 254 254 254 254 254 254 254 254
254 254 254 254 254 254 254 254 254 254 254 254 254 254 254 254 254 254 254 254 254 254 254 254
254 254 254 223  36   0   0   0   0   0   0   0   0   0   0   0   0   0   0   0   0 186 248 254
254 254 254 254 254 254 254 254 254 254 254 254 254 254 254 254 254 254 254 254 254 254 254 254
254 254 254 254 254 254 254 254 254 254 254 254 254 254 254 254 254 254 254 254 254 254   0   0
205 205 205 205 205 205 205 205 205 205
205 205 205 205 205 205 205 205 205   0   0 254 254 254 254 254 254 254 254 254 254 254 254 254
254 254 254 254 254 254 254 254 254 254 254 254 254 254 254 254 254 254 254 254 254 254 254 254
254 254 254 223  36   0   0   0   0   0   0   0   0   0   0   0   0   0   0   0   0 186 248 254
254 254 254 254 254 254 254 254 254 254 254 254 254 254 254 254 254 254 254 254 254 254 254 254
254 254 254 254 254 254 254 254 254 254 254 254 254 254 254 254 254 254 254 254 254 254   0   0
205 205 205 205 205 205 205 205 205 205
205 205 205 205 205 205 205 205 205   0   0 254 254 254 254 254 254 254 254 254 254 254 254 254
254 254 254 254 254 254 254 254 254 254 254 254 254 254 254 254 254 254 254 254 254 254 254 254
254 254 254 223  36   0   0   0   0   0   0   0   0   0   0   0   0   0   0   0   0 186 248 254
254 254 254 254 254 254 254 254 254 254 254 254 254 254 254 254 254 254 254 254 254 254 254 254
254 254 254 254 254 254 254 254 254 254 254 254 254 254 254 254 254 254 254 254 254 254   0   0
205 205 205 205 205 205 205 205 205 205
205 205 205 205 205 205 205 205 205   0   0 254 254 254 254 254 254 254 254 254 254 254 254 254
254 254 254 254 254 254 254 254 254 254 254 254 254 254 254 254 254 254 254 254 254 254 254 254
254 254 254 223  36   0   0   0   0   0   0   0   0   0   0   0   0   0   0   0   0 186 248 254
254 254 254 254 254 254 254 254 254 254 254 254 254 254 254 254 254 254 254 254 254 254 254 254
254 254 254 254 254 254 254   0   0   0   0   0   0 254 254 254 254 254 254 254 254 254   0   0
205 205 205 205 205 205 205 205 205 205
205 205 205 205 205 205 205 205 205   0   0 254 254 254 254 254 254 254 254 254 254 254 254 254
254 254 254 254 254 254 254 254 254 254 254 254 254 254 254 254 254 254 254 254 254 254 254 254
254 254 254 223  36   0   0   0   0   0   0   0   0   0   0   0   0   0   0   0   0 186 248 254
254 254 254 254 254 254 254 254 254 254 254 254 254 254 254 254 254 254 254 254 254 254 254 254
254 254 254 254 254 254 254 254   0   0   0   0 205 205 205 254 254 254 254 254 254 254   0   0
205 205 205 205 205 205 205 205 205 205
205 205 205 205 205 205 205 205 205   0 205 254 254 254 254 254 254 254 254 254 254 254 254 254
254 254 254 254 254 254 254 254 254 254 254 254 254 254 254 254 254 254 254 254 254 254 254 254
254 254 254 223  36   0   0   0   0   0   0   0   0   0   0   0   0   0   0   0   0 186 248 254
254 254 254 254 254 254 254 254 254 254 254 254 254 254 254 254 254 254 254 254 254 254 254 254
  0   0 205 254 254 254 254 254 254 254 205 254 254 254 254 254 254 254 254 254 254 254   0   0
205 205 205 205 205 205 205 205 205 205
205 205 205 205 205 205 205 205 205   0 205 254 254 254 254 254 254 254 254 254 254 254 254 254
254 254 254 254 254 254 254 254 254 254 254 254 254 254 254 254 254 254 254 254 254 254 254 254
254 254 254 223  36   0   0   0   0   0   0   0   0   0   0   0   0   0   0   0   0 186 248 254
254 254 254 254 254 254 254 254 254 254 254 254 254 254 254 254 254 254 254 254 254 254 254 254
205   0   0   0 205 254 254 254 254 254 254 254 254 254 254 254 254 254 254 254 254   0   0   0
205 205 205 205 205 205 205 205 205 205
205 205 205 205 205 205 205 205 205   0 205 254 254 254 254 254 254 254 254 254 254 254 254 254
254 254 254 254 254 254 254 254 254 254 254 254 254 254 254 254 254 254 254 254 254 254 254 254
254 254 254 223  36   0   0   0   0   0   0   0   0   0   0   0   0   0   0   0   0 186 248 254
254 254 254 254 254 254 254 254 254 254 254 254 254 254 254 254 254 254 254 254 254 254 254 254
254 205   0   0 205 205 254 254 254 254 254 254 254 254 254 254 254 254 254 254 254 205   0   0
205 205 205 205 205 205 205 205 205 205
205 205 205 205 205 205 205 205 205   0 205 254 254 254 254 254 254 254 254 254 254 254 254 254
254 254 254 254 254 254 254 254 254 254 254 254 254 254 254 254 254 254 254 254 254 254 254 254
254 254 254 223  36   0   0   0   0   0   0   0   0   0   0   0   0   0   0   0   0 186 248 254
254 254 254 254 254 254 254 254 254 254 254 254 254 254 254 254 254 254 254 254 254 254 254 254
254 254 254 205 254 254 254 254 254 254 254 254 254 254 254 254 254 254 254 254 254 254   0   0
205 205 205 205 205 205 205 205 205 205
205 205 205 205 205 205 205 205 205   0 205 254 254 254 254 254 254 254 254 254 254 254 254 254
254 254 254 254 254 254 254 254 254 254 254 254 254 254 254 254 254 254 254 254 254 254 254 254
254 254 254 223  36   0   0   0   0   0   0   0   0   0   0   0   0   0   0   0   0 186 248 254
254 254 254 254 254 254 254 254 254 254 254 254 254 254 254 254 254 254 254 254 254 254 254 254
254 254 254 254 254 254 254 254 254 254 254 254 254 254 254 205 254 254 254 254 254 254   0   0
205 205 205 205 205 205 205 205 205 205
205 205 205 205 205 205 205 205 205   0 254 254 254 254 254 254 254 254 254 254 254 254 254 254
254 254 254 254 254 254 254 254 254 254 254 254 254 254 254 254 254 254 254 254 254 254 254 254
254 254 254 223  36   0   0   0   0   0   0   0   0   0   0   0   0   0   0   0   0 186 248 254
254 254 254 254 254 254 254 254 254 254 254 254 254 254 254 254 254 254 254 254 254 254 254 254
254 254 254 254 254 254 254 254 254 254 254 254 254 254 254 254 254 254 254 254 254 205   0   0
205 205 205 205 205 205 205 205 205 205
205 205 205 205 205 205 205 205 205   0 254 254 254 254 254 254 254 254 254 254 254 254 254 254
254 254 254 254 254 254 254 254 254 254 254 254 254 254 254 254 254 254 254 254 254 254 254 254
254 254 254 223  36   0   0   0   0   0   0   0   0   0   0   0   0   0   0   0   0 186 248 254
254 254 254 254 254 254 254 254 254 254 254 254 254 254 254 254 254 254 254 254 254 254 254 254
254 254 254 254 254 254 254 254 254 254 254 254 254 205 205 254 254 254 254 254 254   0   0   0
205 205 205 205 205 205 205 205 205 205
205 205 205 205 205 205 205 205 205   0 254 254 254 254 254 254 254 254 254 254 254 254 254 254
254 254 254 254 254 254 254 254 254 254 254 254 254 254 254 254 254 254 254 254 254 254 254 254
254 254 254 223  36   0   0   0   0   0   0   0   0   0   0   0   0   0   0   0   0 186 248 254
254 254 254 254 254 254 254 254 254 254 254 254 254 254 254 254 254 254 254 254 254 254 254 254
254 254 254 254 254 254 254 254 254 254 254 254 254 254 205 254 254 254 254 254 254 205   0   0
205 205 205 205 205 205 205 205 205 205
205 205 205 205 205 205 205 205 205   0 254 254 254 254 254 254 254 254 254 254 254 254 254 254
254 254 254 254 254 254 254 254 254 254 254 254 254 254 254 254 254 254 254 254 254 254 254 254
254 254 254 223  36   0   0   0   0   0   0   0   0   0   0   0   0   0   0   0   0 186 248 254
254 254 254 254 254 254 254 254 254 254 254 254 254 254 254 254 254 254 254 254 254 254 254 254
254 254 254 254 254 254 254 254 254 254 254 254 254 254 205 254 254 254 254 254 254 254   0   0
205 205 205 205 205 205 205 205 205 205
205 205 205 205 205 205 205 205 205   0 254 254 254 254 254 254 254 254 254 254 254 254 254 254
254 254 254 254 254 254 254 254 254 254 254 254 254 254 254 254 254 254 254 254 254 254 254 254
254 254 254 223  36   0   0   0   0   0   0   0   0   0   0   0   0   0   0   0   0 186 248 254
254 254 254 254 254 254 254 254 254 254 254 254 254 254 254 254 254 254 205 205 254 254 254 254
254 254 254 254 254 254 254 254 254 254 254 254   0   0   0   0 254 254 254 254 254   0   0   0
205 205 205 205 205 205 205 205 205 205
205 205 205 205 205 205 205 205 205   0 254 254 254 254 254 254 254 254 254 254 254 254 254 254
254 254 254 254 254 254 254 254 254 254 254 254 254 254 254 254 254 254 254 254 254 254 254 254
254 254 254 223  36   0   0   0   0   0   0   0   0   0   0   0   0   0   0   0   0 186 248 254
254 254 254 254 254 254 254 254 254 254 254 254 254 254 254 254 254 254   0   0 205 254 254 254
254 254 254 254 254 254 254 254 254 254 254   0   0   0   0   0   0 254 254 254 254 205   0   0
205 205 205 205 205 205 205 205 205 205
205 205 205 205 205 205 205 205 205   0 254 254 254 254 254 254 254 254 254 254 254 254 254 254
254 254 254 254 254 254 254 254 254 254 254 254 254 254 254 254 254 254 254 254 254 254 254 254
254 254 254 223  36   0   0   0   0   0   0   0   0   0   0   0   0   0   0   0   0 186 248 254
254 254 254 254 254 254 254 254 254 254 254 254 254 254 254 254 254 254 205 205 254 254 254 254
254 254 254 254 254 254 254 254 254 254   0   0   0   0   0   0   0   0 254 254 254 205   0   0
205 205 205 205 205 205 205 205 205 205
205 205 205 205 205 205 205 205 205   0 254 254 254 254 254 254 254 254 254 254 254 254 254 254
254 254 254 254 254 254 254 254 254 254 254 254 254 254 254 254 254 254 254 254 254 254 254 254
254 254 254 223  36   0   0   0   0   0   0   0   0   0   0   0   0   0   0   0   0 186 248 254
254 254 254 254 254 254 254 254 254 254 254 254 254 254 254 254 254 254 254 254 254 254 254 254
254 254 254 254 254 254 254 254 254   0   0   0 205 205 205   0 205 254 254 254 205   0   0   0
205 205 205 205 205 205 205 205 205 205
205 205 205 205 205 205 205 205 205   0 254 254 254 254 254 254 254 254 254 254 254 254 254 254
254 254 254 254 254 254 254 254 254 254 254 254 254 254 254 254 254 254 254 254 254 254 254 254
254 254 254 223  36   0   0   0   0   0   0   0   0   0   0   0   0   0   0   0   0 186 248 254
254 254 254 254 254 254 254 254 254 254 254 254 254 254 254 254 254 254 254 254 254 254 254 254
254 254 254 254 254 254 254 205   0   0   0 205 205 205 205 205   0 254 254 254 205   0   0   0
205 205 205 205 205 205 205 205 205 205
205 205 205 205 205 205 205 205   0   0 254 254 254 254 254 254 254 254 254 254 254 254 254 254
254 254 254 254 254 254 254 254 254 254 254 254 254 254 254 254 254 254 254 254 254 254 254 254
254 254 254 223  36   0   0   0   0   0   0   0   0   0   0   0   0   0   0   0   0 186 248 254
254 254 254 254 254 254 254 254 254 254 254 254 254 254 254 254 254 254 254 254 254 254 254 254
254 254 254 254 254 254 254   0   0   0 205 205 205 205 205 205   0 205 254 254 254   0   0   0
205 205 205 205 205 205 205 205 205 205
205 205 205 205 205 205 205 205   0   0 254 254 254 254 254 254 254 254 254 254 254 254 254 254
254 254 254 254 254 254 254 254 254 254 254 254 254 254 254 254 254 254 254 254 254 254 254 254
254 254 254 223  36   0   0   0   0   0   0   0   0   0   0   0   0   0   0   0   0 186 248 254
254 254 254 254 254 254 254 254 254 254 254 254 254 254 254 254 254 254 254 254 254 254 254 254
254 254 254 254 254 254 254   0   0 205 205 205 205 205 205 205 205   0 254 254 254 254   0   0
205 205 205 205 205 205 205 205 205 205
205 205 205 205 205 205 205 205   0   0 254 254 254 254 254 254 254 254 254 254 254 254 254 254
254 254 254 254 254 254 254 254 254 254 254 254 254 254 254 254 254 254 254 254 254 254 254 254
254 254 254 223  36   0   0   0   0   0   0   0   0   0   0   0   0   0   0   0   0 186 248 254
254 254 254 254 254 254 254 254 254 254 254 254 254 254 254 254 254 254 254 254 254 254 254 254
254 254 205 254 254 254 254   0   0 254 205 205 205 205 205 205 205   0 205 254 254 254   0   0
205 205 205 205 205 205 205 205 205 205
205 205 205 205 205 205 205 205   0   0 254 254 254 254 254 254 254 254 254 254 254 254 254 254
254 254 254 254 254 254 254 254 254 254 254 254 254 254 254 254 254 254 254 254 254 254 254 254
254 254 254 223  36   0   0   0   0   0   0   0   0   0   0   0   0   0   0   0   0 186 248 254
254 254 254 254 254 254 205 254 254   0   0 205 254 254 254 254 254 254 254 254 254 254 254 254
254 254 205 205 254 254 254 254 205   0 254 205 205 205 205 205 205 205   0 254 254 254   0   0
205 205 205 205 205 205 205 205 205 205
205 205 205 205 205 205 205 205   0   0 254 254 254 254 254 254 254 254 254 254 254 254 254 254
254 254 254 254 254 254 254 254 254 254 254 254 254 254 254 254 254 254 254 254 254 254 254 254
254 254 254 223  36   0   0   0   0   0   0   0   0   0   0   0   0   0   0   0   0 186 248 254
254 254 254 254 254 254 205   0 205 205   0   0 205 254 254 254 254 254 254 254 254 254 254 254
254 254 254 254 254 254 254 254 254 254 205 254   0   0   0 205 205 205 205 254 254 254   0   0
205 205 205 205 205 205 205 205 205 205
205 205 205 205 205 205 205 205   0   0 254 254 254 254 254 254 254 254 254 254 254 254 254 254
254 254 254 254 254 254 254 254 254 254 254 254 254 254 254 254 254 254 254 254 254 254 254 254
254 254 254 223  36   0   0   0   0   0   0   0   0   0   0   0   0   0   0   0   0 186 248 254
254 254 254 254 254 254 254 205 254 254   0   0   0 205 254 254 254 254 254 254 254 254 254 254
254 254 254 254 254 254 254 254 254 254 254 205 205 205 205 205 205 205 205 205 254 254   0   0
205 205 205 205 205 205 205 205 205 205
205 205 205 205 205 205 205 205   0   0 254 254 254 254 254 254 254 254 254 254 254 254 254 254
254 254 254 254 254 254 254 254 254 254 254 254 254 254 254 254 254 254 254 254 254 254 254 254
254 254 254 223  36   0   0   0   0   0   0   0   0   0   0   0   0   0   0   0   0 186 248 254
254 254 254 254 254 254 254 205 254 254 254 205   0 205 254 254 254 254 254 254 254 254 254 254
254 254 254 254 254 254 254 254 254 254 254 254 205 205 205 205 205 205 205 254 254 254   0   0
205 205 205 205 205 205 205 205 205 205
205 205 205 205 205 205 205 205   0   0 254 254 254 254 254 254 254 254 254 254 254 254 254 254
254 254 254 254 254 254 254 254 254 254 254 254 254 254 254 254 254 254 254 254 254 254 254 254
254 254 254 223  36   0   0   0   0   0   0   0   0   0   0   0   0   0   0   0   0 186 248 254
254 254 254 254 254 254 254 254 254 254 254 254 205 205 205 254 254 254 254 254 254 254 254 254
254 254 254 254 254 254 254 254 254 254 254 254 205   0   0 205 205 205 205 205 254 254   0   0
205 205 205 205 205 205 205 205 205 205
205 205 205 205 205 205 205 205   0   0 254 254 254 254 254 254 254 254 254 254 254 254 254 254
254 254 254 254 254 254 254 254 254 254 254 254 254 254 254 254 254 254 254 254 254 254 254 254
254 254 254 223  36   0   0   0   0   0   0   0   0   0   0   0   0   0   0   0   0 186 248 254
254 254 254 254 254 254 254 254 254 254 254 254 254 205 205 205 254 254 254 254 254 254 254 254
254 254 254 254 254 254 254 254 254 254 254 254 254   0   0   0 205 205 205 205 254 254   0   0
205 205 205 205 205 205 205 205 205 205
205 205 205 205 205 205 205 205   0   0 254 254 254 254 254 254 254 254 254 254 254 254 254 254
254 254 254 254 254 254 254 254 254 254 254 254 254 254 254 254 254 254 254 254 254 254 254 254
254 254 254 223  36   0   0   0   0   0   0   0   0   0   0   0   0   0   0   0   0 186 248 254
254 254 254 254 254 254 254 254 254 254 254 254 205 205 254 254 254 254 254 254 254 254 254 254
254 254 254 254 254 254 254 254 254 254 254 254 254 205   0   0 205 205 205 205 254 254   0   0
205 205 205 205 205 205 205 205 205 205
205 205 205 205 205 205 205 205   0   0 254 254 254 254 254 254 254 254 254 254 254 254 254 254
254 254 254 254 254 254 254 254 254 254 254 254 254 254 254 254 254 254 254 254 254 254 254 254
254 254 254 223  36   0   0   0   0   0   0   0   0   0   0   0   0   0   0   0   0 186 248 254
254 254 254 254 254 254 254 254 254 254 254 254 205 205 254 254 254 254 254 254 254 254 254 254
254 254 254 254 254 254 254 254 254 254 254 254 254 254 205   0   0 205 205 205 254 254   0   0
205 205 205 205 205 205 205 205 205 205
205 205 205 205 205 205 205 205   0   0 254 254 254 254 254 254 254 254 254 254 254 254 254 254
254 254 254 254 254 254 254 254 254 254 254 254 254 254 254 254 254 254 254 254 254 254 254 254
254 254 254 223  36   0   0   0   0   0   0   0   0   0   0   0   0   0   0   0   0 186 248 254
254 254 254 254 254 254 254 254 254 254 254 254 254 254 254 254 254 254 254 254 254 254 254 254
254 254 254 254 254 254 254 254 254 254 254 254 254 254 254 254 254 205 254 205 205 254 205   0
205 205 205 205 205 205 205 205 205 205
205 205 205 205 205 205 205 205   0   0 205 205 254 254 254 254 254 254 254 254 254 205   0   0
  0   0   0   0   0   0   0   0   0   0   0 205 205 205 205 254 254 254 254 254 254 254 254 254
254 254 254 223  36   0   0   0   0   0   0   0   0   0   0   0   0   0   0   0   0 186 248 254
254 254 254 254 254 254 254 254 254   0 254 254 254 254 254 254 254 254 254 254 254 254 254 254
254 254 205 254 254 254 254 254 254 254 254 254 254 254 254 254 254 205 205 205 205 205   0   0
205 205 205 205 205 205 205 205 205 205
205 205 205 205 205 205 205 205   0   0   0   0   0   0   0   0   0   0   0   0   0   0   0   0
  0   0   0   0   0   0   0   0   0   0   0   0   0   0   0   0   0   0   0   0   0   0   0   0
  0   0   0   0   0   0   0   0   0   0   0   0   0   0   0   0   0   0   0   0   0   0   0   0
  0   0   0   0   0   0   0   0   0   0   0   0   0   0   0   0   0   0   0   0   0   0   0   0
  0   0   0   0 205 205 205 205 205   0   0   0   0   0   0   0   0   0   0   0   0   0   0 205
205 205 205 205 205 205 205 205 205 205
205 205 205 205 205 205 205 205 205   0   0   0   0   0   0   0   0   0   0   0   0   0   0   0
  0   0   0   0   0   0   0   0   0   0   0   0   0   0   0   0   0   0   0   0   0   0   0   0
  0   0   0   0   0   0   0   0   0   0   0   0   0   0   0   0   0   0   0   0   0   0   0   0
  0   0   0   0   0   0   0   0   0   0   0   0   0   0   0   0   0   0   0   0   0   0   0   0
  0   0   0   0   0   0   0   0   0   0   0   0   0   0   0   0   0   0   0   0   0 205 205 205
205 205 205 205 205 205 205 205 205 205
205 205 205 205 205 205 205 205 205 205 205 205 205 205 205 205 205 205 205 205 205 205 205 205
205 205   0 205 205 205 205 205 205 205 205 205 205 205 205 205 205 205 205 205 205 205 205 205
205 205 205 205 205 205 205 205 205 205 205 205 205 205 205 205 205 205 205 205 205 205 205 205
205 205 205 205 205 205 205 205 205 205 205 205 205 205 205 205 205 205 205 205 205 205 205 205
205 205   0   0   0   0   0   0   0   0   0   0   0   0   0   0   0   0   0 205 205 205 205 205
205 205 205 205 205 205 205 205 205 205
205 205 205 205 205 205 205 205 205 205 205 205 205 205 205 205 205 205 205 205 205 205 205 205
205 205 205 205 205 205 205 205 205 205 205 205 205 205 205 205 205 205 205 205 205 205 205 205
205 205 205 205 205 205 205 205 205 205 205 205 205 205 205 205 205 205 205 205 205 205 205 205
205 205 205 205 205 205 205 205 205 205 205 205 205 205 205 205 205 205 205 205 205 205 205 205
205 205 205 205 205 205 205 205 205 205 205 205 205 205 205 205 205 205 205 205 205 205 205 205
205 205 205 205 205 205 205 205 205 205
205 205 205 205 205 205 205 205 205 205 205 205 205 205 205 205 205 205 205 205 205 205 205 205
205 205 205 205 205 205 205 205 205 205 205 205 205 205 205 205 205 205 205 205 205 205 205 205
205 205 205 205 205 205 205 205 205 205 205 205 205 205 205 205 205 205 205 205 205 205 205 205
205 205 205 205 205 205 205 205 205 205 205 205 205 205 205 205 205 205 205 205 205 205 205 205
205 205 205 205 205 205 205 205 205 205 205 205 205 205 205 205 205 205 205 205 205 205 205 205
205 205 205 205 205 205 205 205 205 205
205 205 205 205 205 205 205 205 205 205 205 205 205 205 205 205 205 205 205 205 205 205 205 205
205 205 205 205 205 205 205 205 205 205 205 205 205 205 205 205 205 205 205 205 205 205 205 205
205 205 205 205 205 205 205 205 205 205 205 205 205 205 205 205 205 205 205 205 205 205 205 205
205 205 205 205 205 205 205 205 205 205 205 205 205 205 205 205 205 205 205 205 205 205 205 205
205 205 205 205 205 205 205 205 205 205 205 205 205 205 205 205 205 205 205 205 205 205 205 205
205 205 205 205 205 205 205 205 205 205
205 205 205 205 205 205 205 205 205 205 205 205 205 205 205 205 205 205 205 205 205 205 205 205
205 205 205 205 205 205 205 205 205 205 205 205 205 205 205 205 205 205 205 205 205 205 205 205
205 205 205 205 205 205 205 205 205 205 205 205 205 205 205 205 205 205 205 205 205 205 205 205
205 205 205 205 205 205 205 205 205 205 205 205 205 205 205 205 205 205 205 205 205 205 205 205
205 205 205 205 205 205 205 205 205 205 205 205 205 205 205 205 205 205 205 205 205 205 205 205
205 205 205 205 205 205 205 205 205 205
205 205 205 205 205 205 205 205 205 205 205 205 205 205 205 205 205 205 205 205 205 205 205 205
205 205 205 205 205 205 205 205 205 205 205 205 205 205 205 205 205 205 205 205 205 205 205 205
205 205 205 205 205 205 205 205 205 205 205 205 205 205 205 205 205 205 205 205 205 205 205 205
205 205 205 205 205 205 205 205 205 205 205 205 205 205 205 205 205 205 205 205 205 205 205 205
205 205 205 205 205 205 205 205 205 205 205 205 205 205 205 205 205 205 205 205 205 205 205 205
205 205 205 205 205 205 205 205 205 205
205 205 205 205 205 205 205 205 205 205 205 205 205 205 205 205 205 205 205 205 205 205 205 205
205 205 205 205 205 205 205 205 205 205 205 205 205 205 205 205 205 205 205 205 205 205 205 205
205 205 205 205 205 205 205 205 205 205 205 205 205 205 205 205 205 205 205 205 205 205 205 205
205 205 205 205 205 205 205 205 205 205 205 205 205 205 205 205 205 205 205 205 205 205 205 205
205 205 205 205 205 205 205 205 205 205 205 205 205 205 205 205 205 205 205 205 205 205 205 205
205 205 205 205 205 205 205 205 205 205
205 205 205 205 205 205 205 205 205 205 205 205 205 205 205 205 205 205 205 205 205 205 205 205
205 205 205 205 205 205 205 205 205 205 205 205 205 205 205 205 205 205 205 205 205 205 205 205
205 205 205 205 205 205 205 205 205 205 205 205 205 205 205 205 205 205 205 205 205 205 205 205
205 205 205 205 205 205 205 205 205 205 205 205 205 205 205 205 205 205 205 205 205 205 205 205
205 205 205 205 205 205 205 205 205 205 205 205 205 205 205 205 205 205 205 205 205 205 205 205
205 205 205 205 205 205 205 205 205 205
205 205 205 205 205 205 205 205 205 205 205 205 205 205 205 205 205 205 205 205 205 205 205 205
205 205 205 205 205 205 205 205 205 205 205 205 205 205 205 205 205 205 205 205 205 205 205 205
205 205 205 205 205 205 205 205 205 205 205 205 205 205 205 205 205 205 205 205 205 205 205 205
205 205 205 205 205 205 205 205 205 205 205 205 205 205 205 205 205 205 205 205 205 205 205 205
205 205 205 205 205 205 205 205 205 205 205 205 205 205 205 205 205 205 205 205 205 205 205 205
205 205 205 205 205 205 205 205 205 205
